Sources/FrostedUI/Resources/Icons.xcassets/arrowFatDownFilled32.imageset/arrow-fat-down-filled-32.svg

<svg width="32" height="32" viewBox="0 0 32 32" fill="none" xmlns="http://www.w3.org/2000/svg" data-fui-icon="true">
  <path
    d="M5.85751 20.1309C4.92719 19.0505 5.69475 17.3766 7.12046 17.3766H10.6666V5.04329C10.6666 3.75463 11.7113 2.70996 12.9999 2.70996H18.9999C20.2886 2.70996 21.3332 3.75464 21.3332 5.04329V17.3766H24.8794C26.3051 17.3766 27.0727 19.0505 26.1423 20.1309L17.768 29.8558C16.8371 30.9369 15.1627 30.9369 14.2318 29.8558L5.85751 20.1309Z"
    fill="currentColor"
  />
</svg>

<svg xmlns="http://www.w3.org/2000/svg" width="32" height="32" fill="none" data-fui-icon="true" viewBox="0 0 32 32"><path fill="currentColor" d="M5.858 20.13c-.93-1.08-.163-2.753 1.262-2.753h3.547V5.043A2.333 2.333 0 0 1 13 2.71h6a2.333 2.333 0 0 1 2.333 2.333v12.334h3.546c1.426 0 2.194 1.674 1.263 2.754l-8.374 9.725a2.333 2.333 0 0 1-3.536 0z"/></svg>
